X:1
T: The Night Peece 
C: John Playford
S: The English Dancing Master - 1651
Z: Entered/Transposed from key of d by Philip Lewis -- Distribute Freely
M: 6/8
L: 1/8
P: AA BBB three times through 
K: G
P: A (2x)
B2G d2B |G2 DG B| \
L: 1/8
Ac2 B>AG |FGA/2B/2c2d:|
P: B (3x)
eec ddc| B>AG A2 D| GGF GGD| B A2 G3:|
